packages/icons/general/GearSettings.svg

<svg width="14" height="14" viewBox="0 0 14 14" xmlns="http://www.w3.org/2000/svg">
<g>
        <path d="M7.0003 4.47314C5.60697 4.47314 4.47363 5.60648 4.47363 6.99981C4.47363 8.39314 5.60697 9.52648 7.0003 9.52648C8.39363 9.52648 9.52697 8.39314 9.52697 6.99981C9.52697 5.60648 8.39363 4.47314 7.0003 4.47314ZM7.0003 8.52648C6.15897 8.52648 5.47363 7.84248 5.47363 6.99981C5.47363 6.15714 6.1603 5.47314 7.0003 5.47314C7.8403 5.47314 8.52697 6.15714 8.52697 6.99981C8.52697 7.84248 7.84163 8.52648 7.0003 8.52648Z" />
        <path d="M7.24003 13.9166H6.7587C5.97003 13.9166 5.3227 13.3246 5.2507 12.5406L5.24136 12.4426C5.2247 12.2513 5.10336 12.0873 4.9267 12.0133C4.73603 11.9333 4.5387 11.9699 4.3947 12.0899L4.31736 12.1546C3.7387 12.6379 2.81536 12.5966 2.27736 12.0613L1.93736 11.7213C1.38003 11.1613 1.34003 10.2853 1.84403 9.68125L1.90936 9.60259C2.03336 9.45459 2.0627 9.25392 1.9907 9.07792C1.91736 8.89659 1.75203 8.77525 1.56003 8.75792L1.46003 8.74859C0.673365 8.67725 0.0820312 8.02859 0.0820312 7.24059V6.75925C0.0820312 5.97059 0.674031 5.32325 1.45803 5.25125L1.56203 5.24192C1.75203 5.22525 1.91536 5.10392 1.99003 4.92659C2.06336 4.74659 2.03336 4.54459 1.91003 4.39659L1.84736 4.31925C1.3427 3.71392 1.38203 2.83725 1.9387 2.27925L2.28003 1.93792C2.81603 1.40192 3.7387 1.36125 4.32003 1.84459L4.39736 1.90992C4.5427 2.03259 4.74936 2.06325 4.92403 1.99125C5.10403 1.91659 5.22536 1.75259 5.24203 1.56259L5.25136 1.46059C5.3227 0.673919 5.97136 0.083252 6.75936 0.083252H7.2407C8.02936 0.083252 8.6767 0.675252 8.7487 1.45925L8.75803 1.56325C8.7747 1.75325 8.89536 1.91659 9.0727 1.98992C9.25737 2.06792 9.45936 2.03125 9.60203 1.91192L9.68203 1.84392C10.26 1.36192 11.1847 1.40259 11.722 1.93725L12.062 2.27859C12.6194 2.83725 12.6594 3.71392 12.1554 4.31859L12.0887 4.39725C11.9634 4.54392 11.9327 4.74525 12.0067 4.92259C12.0814 5.10259 12.2467 5.22259 12.4374 5.24125L12.5387 5.25059C13.3254 5.32192 13.9167 5.97059 13.9167 6.75858V7.24059C13.9167 8.02925 13.3247 8.67659 12.5407 8.74859L12.4374 8.75792C12.248 8.77392 12.084 8.89459 12.0107 9.07125C11.9354 9.25259 11.966 9.45392 12.0887 9.60125L12.1554 9.68125C12.6594 10.2846 12.6194 11.1613 12.062 11.7213L11.722 12.0613C11.184 12.5973 10.262 12.6373 9.68203 12.1546L9.60536 12.0906C9.4607 11.9686 9.25203 11.9373 9.0787 12.0093C8.8967 12.0853 8.77536 12.2493 8.7587 12.4399L8.74936 12.5399C8.67803 13.3219 8.02937 13.9133 7.24136 13.9133L7.24003 13.9166ZM4.7247 10.9699C4.9247 10.9699 5.12003 11.0099 5.3047 11.0866C5.83136 11.3053 6.18737 11.7893 6.23803 12.3506L6.24736 12.4486C6.27203 12.7153 6.49203 12.9153 6.7607 12.9153H7.24203C7.5087 12.9153 7.7287 12.7153 7.75403 12.4486L7.76336 12.3499C7.81403 11.7886 8.17003 11.3053 8.69136 11.0886C9.22003 10.8686 9.82203 10.9673 10.2467 11.3219L10.322 11.3846C10.4407 11.4833 10.566 11.5046 10.6507 11.5046C10.788 11.5046 10.9174 11.4513 11.0147 11.3533L11.3547 11.0133C11.544 10.8239 11.558 10.5266 11.3867 10.3213L11.32 10.2413C10.9587 9.80792 10.8687 9.21459 11.0854 8.69258C11.3027 8.16592 11.7867 7.81259 12.348 7.76125L12.4514 7.75192C12.716 7.72725 12.918 7.50725 12.918 7.23859V6.75725C12.918 6.49059 12.716 6.27059 12.45 6.24525L12.3487 6.23592C11.7847 6.18392 11.302 5.82925 11.0854 5.30725C10.868 4.78192 10.9587 4.18859 11.3207 3.75592L11.3874 3.67725C11.5587 3.47059 11.5447 3.17325 11.3554 2.98392L11.0154 2.64392C10.918 2.54592 10.7887 2.49259 10.6514 2.49259C10.5667 2.49259 10.4414 2.51392 10.3234 2.61259L10.2434 2.67925C9.8207 3.03125 9.21003 3.12592 8.69536 2.91525C8.17003 2.69725 7.81536 2.21392 7.76403 1.65125L7.7547 1.54792C7.73136 1.28325 7.51136 1.08125 7.24336 1.08125H6.76136C6.4947 1.08125 6.2747 1.28325 6.24936 1.54925L6.24003 1.65059C6.18936 2.21259 5.8347 2.69592 5.31336 2.91259C4.7887 3.12992 4.1847 3.03459 3.76003 2.67925L3.68136 2.61525C3.56136 2.51525 3.43603 2.49525 3.35136 2.49525C3.21403 2.49525 3.0847 2.54859 2.98736 2.64592L2.64603 2.98592C2.45803 3.17525 2.44403 3.47259 2.61536 3.67792L2.68203 3.75659C3.04203 4.19192 3.13336 4.78592 2.9167 5.30659C2.6987 5.83192 2.21536 6.18659 1.65336 6.23792L1.54936 6.24725C1.2847 6.27192 1.0827 6.49192 1.0827 6.76059V7.24192C1.0827 7.50859 1.2847 7.72859 1.5507 7.75392L1.6507 7.76325C2.21603 7.81525 2.69936 8.17125 2.91536 8.69392C3.13203 9.21792 3.04203 9.81059 2.68003 10.2439L2.61603 10.3206C2.4427 10.5273 2.45736 10.8246 2.6467 11.0139L2.9867 11.3539C3.08403 11.4519 3.21336 11.5053 3.3507 11.5053C3.43536 11.5053 3.5607 11.4853 3.6787 11.3853L3.75603 11.3213C4.0267 11.0973 4.37136 10.9719 4.7247 10.9719V10.9699Z" />
    </g>
</svg>

<svg xmlns="http://www.w3.org/2000/svg" viewBox="0 0 14 14">
    <path d="M7 4.473A2.53 2.53 0 0 0 4.474 7 2.53 2.53 0 0 0 7 9.526 2.53 2.53 0 0 0 9.527 7 2.53 2.53 0 0 0 7 4.473Zm0 4.053A1.528 1.528 0 0 1 5.474 7c0-.843.686-1.527 1.526-1.527S8.527 6.157 8.527 7c0 .842-.685 1.526-1.527 1.526Z"/>
    <path d="M7.24 13.917h-.481A1.507 1.507 0 0 1 5.25 12.54l-.01-.098a.513.513 0 0 0-.314-.43.509.509 0 0 0-.532.077l-.078.065c-.578.483-1.502.442-2.04-.094l-.34-.34a1.508 1.508 0 0 1-.093-2.04l.065-.078a.512.512 0 0 0 .082-.525.512.512 0 0 0-.431-.32l-.1-.01A1.507 1.507 0 0 1 .082 7.242V6.76c0-.788.592-1.436 1.376-1.508l.104-.01a.518.518 0 0 0 .348-.845l-.063-.077a1.508 1.508 0 0 1 .092-2.04l.341-.341c.536-.536 1.459-.577 2.04-.093l.077.065a.518.518 0 0 0 .845-.347l.01-.102A1.506 1.506 0 0 1 6.758.083h.482c.788 0 1.436.592 1.508 1.376l.009.104a.51.51 0 0 0 .315.427.512.512 0 0 0 .529-.078l.08-.068c.578-.482 1.503-.441 2.04.093l.34.342c.557.558.597 1.435.093 2.04l-.066.078a.505.505 0 0 0-.082.526c.074.18.24.3.43.318l.102.01c.786.07 1.378.72 1.378 1.508v.482c0 .788-.592 1.436-1.376 1.508l-.104.009a.508.508 0 0 0-.426.313.514.514 0 0 0 .078.53l.066.08c.504.604.464 1.48-.093 2.04l-.34.34c-.538.536-1.46.576-2.04.094l-.077-.064a.52.52 0 0 0-.846.349l-.01.1a1.506 1.506 0 0 1-1.508 1.373l-.001.004ZM4.725 10.97c.2 0 .395.04.58.117.526.218.882.702.933 1.264l.01.098a.512.512 0 0 0 .513.466h.481c.267 0 .487-.2.512-.466l.01-.1a1.51 1.51 0 0 1 .927-1.26 1.522 1.522 0 0 1 1.556.233l.075.063a.51.51 0 0 0 .693-.032l.34-.34a.51.51 0 0 0 .032-.692l-.067-.08a1.508 1.508 0 0 1-.235-1.548c.218-.527.702-.88 1.263-.932l.103-.01a.513.513 0 0 0 .467-.512v-.482a.514.514 0 0 0-.468-.512l-.101-.01a1.512 1.512 0 0 1-1.264-.928 1.509 1.509 0 0 1 .236-1.551l.066-.079a.512.512 0 0 0-.032-.693l-.34-.34a.51.51 0 0 0-.692-.031l-.08.066a1.54 1.54 0 0 1-1.548.236 1.512 1.512 0 0 1-.931-1.264l-.01-.103a.51.51 0 0 0-.51-.467H6.76a.514.514 0 0 0-.512.468l-.009.102a1.51 1.51 0 0 1-.927 1.262 1.524 1.524 0 0 1-1.553-.234l-.079-.064a.511.511 0 0 0-.694.03l-.341.34a.512.512 0 0 0-.03.693l.066.079a1.516 1.516 0 0 1-1.029 2.48l-.104.01a.513.513 0 0 0-.466.514v.48c0 .268.202.488.468.513l.1.01a1.512 1.512 0 0 1 1.264.93 1.509 1.509 0 0 1-.235 1.55l-.064.077a.51.51 0 0 0 .03.693l.34.34a.51.51 0 0 0 .693.031l.077-.064c.27-.224.615-.35.969-.35v-.001Z"/>
</svg>
